svgs/light/sd-cards.svg

<svg xmlns="http://www.w3.org/2000/svg" viewBox="0 0 448 512"><!-- Font Awesome Pro 6.0.0-alpha2 by @fontawesome - https://fontawesome.com License - https://fontawesome.com/license (Commercial License) --><path d="M240 64C231.164 64 224 71.162 224 80V144C224 152.836 231.164 160 240 160S256 152.836 256 144V80C256 71.162 248.836 64 240 64ZM304 64C295.164 64 288 71.162 288 80V144C288 152.836 295.164 160 304 160S320 152.836 320 144V80C320 71.162 312.836 64 304 64ZM368 64C359.164 64 352 71.162 352 80V144C352 152.836 359.164 160 368 160S384 152.836 384 144V80C384 71.162 376.836 64 368 64ZM336 480H96C60.654 480 32 451.346 32 416V112C32 103.164 24.836 96 16 96S0 103.164 0 112V416C0 469.02 42.98 512 96 512H336C344.836 512 352 504.836 352 496S344.836 480 336 480ZM384 0H234.51C217.535 0 201.258 6.742 189.254 18.744L98.746 109.254C86.742 121.256 80 137.535 80 154.51V368C80 403.199 108.801 432 144 432H384C419.199 432 448 403.199 448 368V64C448 28.799 419.199 0 384 0ZM416 368C416 385.6 401.6 400 384 400H144C126.4 400 112 385.6 112 368V154.504C112 146.018 115.371 137.879 121.373 131.877L211.877 41.373C217.879 35.371 226.018 32 234.504 32H384C401.6 32 416 46.4 416 64V368Z"/></svg>

<svg xmlns="http://www.w3.org/2000/svg" viewBox="0 0 448 512"><!--! Font Awesome Pro 6.0.0-alpha3 by @fontawesome - https://fontawesome.com License - https://fontawesome.com/license (Commercial License) --><path d="M240 64C231.2 64 224 71.16 224 80v64C224 152.8 231.2 160 240 160S256 152.8 256 144v-64C256 71.16 248.8 64 240 64zM304 64C295.2 64 288 71.16 288 80v64C288 152.8 295.2 160 304 160S320 152.8 320 144v-64C320 71.16 312.8 64 304 64zM368 64C359.2 64 352 71.16 352 80v64C352 152.8 359.2 160 368 160S384 152.8 384 144v-64C384 71.16 376.8 64 368 64zM336 480H96c-35.35 0-64-28.65-64-64V112C32 103.2 24.84 96 16 96S0 103.2 0 112V416c0 53.02 42.98 96 96 96h240c8.836 0 16-7.164 16-16S344.8 480 336 480zM384 0h-149.5C217.5 0 201.3 6.742 189.3 18.74L98.75 109.3C86.74 121.3 80 137.5 80 154.5V368c0 35.2 28.8 64 64 64H384c35.2 0 64-28.8 64-64V64C448 28.8 419.2 0 384 0zM416 368c0 17.6-14.4 32-32 32H144c-17.6 0-32-14.4-32-32V154.5c0-8.486 3.371-16.62 9.373-22.63l90.5-90.5C217.9 35.37 226 32 234.5 32H384c17.6 0 32 14.4 32 32V368z"/></svg>
